!!!OTL: Sanbeijiu
!!!ARE: Asia, China,ÿHebei Yuanshi
!! IV, 44
!!!SCT: C1924
!!!YEM: Copyright 1995, estate of Helmut Schaffrath.
**kern
*ICvox
*Ivox
*M2/4
*k[b-]
*F:
{4cc
8cc
8g
=1
8cc
8dd
4cc
=2
4cc
8ff
8a
=3
4g
4g}
=4
{8cc
8cc
8g
16cc
16a
=5
4g
8cc
8a
=6
4g
8.f
16d
=7
8f
8f
8g
8d
=8
2c}
=9
{8cc
8cc
8g
8a
=10
4g
8f
8d
=11
8f
8f
8g
8d
=12
2c}
==
!!!AGN: Xiaodiao
!!!AMT: simple duple
!!!AIN: vox
!!!EED: Helmut Schaffrath
!!!EEV: 1.0
*-
